SVG_Azure_All/O365 - OneNote.svg

<?xml version="1.0" encoding="UTF-8" standalone="no"?>
<!-- Generated by Microsoft Visio, SVG Export O365 - OneNote.svg Page-1 -->

<svg
   xmlns:dc="http://purl.org/dc/elements/1.1/"
   xmlns:cc="http://creativecommons.org/ns#"
   xmlns:rdf="http://www.w3.org/1999/02/22-rdf-syntax-ns#"
   xmlns:svg="http://www.w3.org/2000/svg"
   xmlns="http://www.w3.org/2000/svg"
   xmlns:sodipodi="http://sodipodi.sourceforge.net/DTD/sodipodi-0.dtd"
   xmlns:inkscape="http://www.inkscape.org/namespaces/inkscape"
   width="0.78740412in"
   height="0.78739953in"
   viewBox="0 0 56.693246 56.69289"
   xml:space="preserve"
   class="st10"
   version="1.1"
   id="svg74"
   sodipodi:docname="O365 - OneNote.svg"
   style="font-size:12px;overflow:visible;color-interpolation-filters:sRGB;fill:none;fill-rule:evenodd;stroke-linecap:square;stroke-miterlimit:3"
   inkscape:version="0.92.5 (2060ec1f9f, 2020-04-08)"><metadata
   id="metadata80"><rdf:RDF><cc:Work
       rdf:about=""><dc:format>image/svg+xml</dc:format><dc:type
         rdf:resource="http://purl.org/dc/dcmitype/StillImage" /></cc:Work></rdf:RDF></metadata><defs
   id="defs78" /><sodipodi:namedview
   pagecolor="#ffffff"
   bordercolor="#666666"
   borderopacity="1"
   objecttolerance="10"
   gridtolerance="10"
   guidetolerance="10"
   inkscape:pageopacity="0"
   inkscape:pageshadow="2"
   inkscape:window-width="640"
   inkscape:window-height="480"
   id="namedview76"
   showgrid="false"
   inkscape:zoom="1.6325437"
   inkscape:cx="37.795247"
   inkscape:cy="26.925659"
   inkscape:window-x="0"
   inkscape:window-y="0"
   inkscape:window-maximized="0"
   inkscape:current-layer="svg74" />
	<style
   type="text/css"
   id="style2">
	<![CDATA[
		.st1 {fill:#ca64ea;stroke:none;stroke-linecap:butt;stroke-width:17.7113}
		.st2 {fill:#ae4bd5;stroke:none;stroke-linecap:butt;stroke-width:17.7113}
		.st3 {fill:#9332bf;stroke:none;stroke-linecap:butt;stroke-width:17.7113}
		.st4 {fill:#7719aa;stroke:none;stroke-linecap:butt;stroke-width:17.7113}
		.st5 {fill:#000000;fill-opacity:0.098;stroke:none;stroke-linecap:butt;stroke-width:17.7113}
		.st6 {fill:#000000;fill-opacity:0.2;stroke:none;stroke-linecap:butt;stroke-width:17.7113}
		.st7 {fill:#000000;fill-opacity:0.3;stroke:none;stroke-linecap:butt;stroke-width:17.7113}
		.st8 {fill:#ffffff;stroke:none;stroke-linecap:butt;stroke-width:17.7113}
		.st9 {fill:none;stroke:none;stroke-linecap:butt;stroke-width:17.7113}
		.st10 {fill:none;fill-rule:evenodd;font-size:12px;overflow:visible;stroke-linecap:square;stroke-miterlimit:3}
	]]>
	</style>

	<g
   id="g72"
   transform="translate(-17.711285,-17.7114)">
		<title
   id="title4">Page-1</title>
		<g
   id="group2579-1"
   transform="translate(17.7113,-34.0157)">
			<title
   id="title6">O365 - OneNote</title>
			<g
   id="group2580-2">
				<title
   id="title8">g26</title>
				<g
   id="shape2581-3"
   transform="translate(14.1732,-3.54331)">
					<title
   id="title10">path2</title>
					<path
   d="m 2.36,58.81 h 37.8 a 2.36161,2.36161 0 0 1 2.36,2.37 v 44.88 a 2.36161,2.36161 0 0 1 -2.36,2.36 H 2.36 A 2.36161,2.36161 0 0 1 0,106.06 V 61.18 a 2.36161,2.36161 0 0 1 2.36,-2.37 z"
   class="st1"
   id="path12"
   inkscape:connector-curvature="0"
   style="fill:#ca64ea;stroke:none;stroke-width:17.7112999;stroke-linecap:butt" />
				</g>
				<g
   id="shape2582-5"
   transform="translate(14.1732,-3.54331)">
					<title
   id="title15">path4</title>
					<path
   d="M 42.52,61.18 A 2.36161,2.36161 -180 0 0 40.16,58.81 H 2.36 A 2.36161,2.36161 -180 0 0 0,61.18 v 44.88 a 2.36161,2.36161 -180 0 0 2.36,2.36 h 27.76 l 12.4,-37.2 z"
   class="st1"
   id="path17"
   inkscape:connector-curvature="0"
   style="fill:#ca64ea;stroke:none;stroke-width:17.7112999;stroke-linecap:butt" />
				</g>
				<g
   id="shape2583-7"
   transform="translate(44.2913,-22.686)">
					<title
   id="title20">path6</title>
					<path
   d="M 12.4,90.36 H 0 v 12.4 l 6.2,5.66 6.2,-5.66 z"
   class="st2"
   id="path22"
   inkscape:connector-curvature="0"
   style="fill:#ae4bd5;stroke:none;stroke-width:17.7112999;stroke-linecap:butt" />
				</g>
				<g
   id="shape2584-9"
   transform="translate(44.2913,-9.93012)">
					<title
   id="title25">path8</title>
					<path
   d="M 12.4,90 H 0 v 12.41 l 6.2,6.01 6.2,-6.01 z"
   class="st3"
   id="path27"
   inkscape:connector-curvature="0"
   style="fill:#9332bf;stroke:none;stroke-width:17.7112999;stroke-linecap:butt" />
				</g>
				<g
   id="shape2585-11"
   transform="translate(44.2913,-3.54331)">
					<title
   id="title30">path10</title>
					<path
   d="m 0,96.02 h 12.4 v 10.04 a 2.36161,2.36161 0 0 1 -2.36,2.36 H 0 Z"
   class="st4"
   id="path32"
   inkscape:connector-curvature="0"
   style="fill:#7719aa;stroke:none;stroke-width:17.7112999;stroke-linecap:butt" />
				</g>
				<g
   id="shape2586-13"
   transform="translate(14.1732,-10.6299)">
					<title
   id="title35">path12</title>
					<path
   d="M 15.35,74.76 H 0 v 33.66 h 15.35 a 2.3687,2.3687 -180 0 0 2.37,-2.36 V 77.12 a 2.3687,2.3687 -180 0 0 -2.37,-2.36 z"
   class="st5"
   id="path37"
   inkscape:connector-curvature="0"
   style="fill:#000000;fill-opacity:0.09800002;stroke:none;stroke-width:17.7112999;stroke-linecap:butt" />
				</g>
				<g
   id="shape2587-15"
   transform="translate(14.1732,-8.85827)">
					<title
   id="title40">path14</title>
					<path
   d="M 13.58,74.76 H 0 v 33.66 h 13.58 a 2.3687,2.3687 -180 0 0 2.36,-2.36 V 77.12 a 2.3687,2.3687 -180 0 0 -2.36,-2.36 z"
   class="st6"
   id="path42"
   inkscape:connector-curvature="0"
   style="fill:#000000;fill-opacity:0.2;stroke:none;stroke-width:17.7112999;stroke-linecap:butt" />
				</g>
				<g
   id="shape2588-17"
   transform="translate(14.1732,-12.4016)">
					<title
   id="title45">path16</title>
					<path
   d="M 13.58,78.3 H 0 v 30.12 h 13.58 a 2.3687,2.3687 -180 0 0 2.36,-2.36 V 80.66 A 2.3687,2.3687 -180 0 0 13.58,78.3 Z"
   class="st7"
   id="path47"
   inkscape:connector-curvature="0"
   style="fill:#000000;fill-opacity:0.3;stroke:none;stroke-width:17.7112999;stroke-linecap:butt" />
				</g>
				<g
   id="shape2589-19"
   transform="translate(14.1732,-12.4016)">
					<title
   id="title50">path18</title>
					<path
   d="M 11.81,78.3 H 0 v 30.12 h 11.81 a 2.3687,2.3687 -180 0 0 2.36,-2.36 V 80.66 A 2.3687,2.3687 -180 0 0 11.81,78.3 Z"
   class="st6"
   id="path52"
   inkscape:connector-curvature="0"
   style="fill:#000000;fill-opacity:0.2;stroke:none;stroke-width:17.7112999;stroke-linecap:butt" />
				</g>
				<g
   id="shape2590-21"
   transform="translate(0,-14.1732)">
					<title
   id="title55">path20</title>
					<path
   d="m 2.36,80.07 h 23.62 a 2.36161,2.36161 0 0 1 2.37,2.37 v 23.62 a 2.36161,2.36161 0 0 1 -2.37,2.36 H 2.36 A 2.36161,2.36161 0 0 1 0,106.06 V 82.44 a 2.36161,2.36161 0 0 1 2.36,-2.37 z"
   class="st4"
   id="path57"
   inkscape:connector-curvature="0"
   style="fill:#7719aa;stroke:none;stroke-width:17.7112999;stroke-linecap:butt" />
				</g>
				<g
   id="shape2591-23"
   transform="translate(7.08661,-19.4882)">
					<title
   id="title60">path22</title>
					<path
   d="m 0,90.7 h 3.78 l 6.47,11.93 c 0.34,0.51 0.59,0.93 0.76,1.24 h 0.05 a 16.8183,16.8183 0 0 1 -0.11,-2.35 V 90.7 h 3.22 v 17.72 H 10.64 L 3.88,96.67 A 9.0939,9.0939 0 0 1 3.2,95.46 H 3.14 a 24.1441,24.1441 0 0 1 0.09,2.58 v 10.38 H 0 Z"
   class="st8"
   id="path62"
   inkscape:connector-curvature="0"
   style="fill:#ffffff;stroke:none;stroke-width:17.7112999;stroke-linecap:butt" />
				</g>
				<g
   id="shape2592-25">
					<title
   id="title65">path24</title>
					<rect
   x="0"
   y="51.7271"
   width="56.692902"
   height="56.692902"
   class="st9"
   id="rect67"
   style="fill:none;stroke:none;stroke-width:17.7112999;stroke-linecap:butt" />
				</g>
			</g>
		</g>
	</g>
</svg>

<?xml version="1.0" encoding="UTF-8" standalone="no"?>
<!DOCTYPE svg PUBLIC "-//W3C//DTD SVG 1.1//EN" "http://www.w3.org/Graphics/SVG/1.1/DTD/svg11.dtd">
<!-- Generated by Microsoft Visio, SVG Export O365 - OneNote.svg Page-1 -->
<svg xmlns="http://www.w3.org/2000/svg" xmlns:xlink="http://www.w3.org/1999/xlink" xmlns:ev="http://www.w3.org/2001/xml-events"
		width="1.27938in" height="1.50583in" viewBox="0 0 92.1156 108.42" xml:space="preserve" color-interpolation-filters="sRGB"
		class="st10">
	<style type="text/css">
	<![CDATA[
		.st1 {fill:#ca64ea;stroke:none;stroke-linecap:butt;stroke-width:17.7113}
		.st2 {fill:#ae4bd5;stroke:none;stroke-linecap:butt;stroke-width:17.7113}
		.st3 {fill:#9332bf;stroke:none;stroke-linecap:butt;stroke-width:17.7113}
		.st4 {fill:#7719aa;stroke:none;stroke-linecap:butt;stroke-width:17.7113}
		.st5 {fill:#000000;fill-opacity:0.098;stroke:none;stroke-linecap:butt;stroke-width:17.7113}
		.st6 {fill:#000000;fill-opacity:0.2;stroke:none;stroke-linecap:butt;stroke-width:17.7113}
		.st7 {fill:#000000;fill-opacity:0.3;stroke:none;stroke-linecap:butt;stroke-width:17.7113}
		.st8 {fill:#ffffff;stroke:none;stroke-linecap:butt;stroke-width:17.7113}
		.st9 {fill:none;stroke:none;stroke-linecap:butt;stroke-width:17.7113}
		.st10 {fill:none;fill-rule:evenodd;font-size:12px;overflow:visible;stroke-linecap:square;stroke-miterlimit:3}
	]]>
	</style>

	<g>
		<title>Page-1</title>
		<g id="group2553-1" transform="translate(17.7113,-34.0157)">
			<title>O365 - OneNote</title>
			<g id="group2554-2">
				<title>g26</title>
				<g id="shape2555-3" transform="translate(14.1732,-3.54331)">
					<title>path2</title>
					<path d="M2.36 58.81 L40.16 58.81 A2.36161 2.36161 0 0 1 42.52 61.18 L42.52 106.06 A2.36161 2.36161 0 0 1 40.16
								 108.42 L2.36 108.42 A2.36161 2.36161 0 0 1 0 106.06 L0 61.18 A2.36161 2.36161 0 0 1 2.36 58.81 Z"
							class="st1"/>
				</g>
				<g id="shape2556-5" transform="translate(14.1732,-3.54331)">
					<title>path4</title>
					<path d="M42.52 61.18 A2.36161 2.36161 -180 0 0 40.16 58.81 L2.36 58.81 A2.36161 2.36161 -180 0 0 0 61.18 L0
								 106.06 A2.36161 2.36161 -180 0 0 2.36 108.42 L30.12 108.42 L42.52 71.22 L42.52 61.18 Z"
							class="st1"/>
				</g>
				<g id="shape2557-7" transform="translate(44.2913,-22.686)">
					<title>path6</title>
					<path d="M12.4 90.36 L0 90.36 L0 102.76 L6.2 108.42 L12.4 102.76 L12.4 90.36 Z" class="st2"/>
				</g>
				<g id="shape2558-9" transform="translate(44.2913,-9.93012)">
					<title>path8</title>
					<path d="M12.4 90 L0 90 L0 102.41 L6.2 108.42 L12.4 102.41 L12.4 90 Z" class="st3"/>
				</g>
				<g id="shape2559-11" transform="translate(44.2913,-3.54331)">
					<title>path10</title>
					<path d="M0 96.02 L12.4 96.02 L12.4 106.06 A2.36161 2.36161 0 0 1 10.04 108.42 L0 108.42 L0 96.02 Z"
							class="st4"/>
				</g>
				<g id="shape2560-13" transform="translate(14.1732,-10.6299)">
					<title>path12</title>
					<path d="M15.35 74.76 L0 74.76 L0 108.42 L15.35 108.42 A2.3687 2.3687 -180 0 0 17.72 106.06 L17.72 77.12 A2.3687
								 2.3687 -180 0 0 15.35 74.76 Z" class="st5"/>
				</g>
				<g id="shape2561-15" transform="translate(14.1732,-8.85827)">
					<title>path14</title>
					<path d="M13.58 74.76 L0 74.76 L0 108.42 L13.58 108.42 A2.3687 2.3687 -180 0 0 15.94 106.06 L15.94 77.12 A2.3687
								 2.3687 -180 0 0 13.58 74.76 Z" class="st6"/>
				</g>
				<g id="shape2562-17" transform="translate(14.1732,-12.4016)">
					<title>path16</title>
					<path d="M13.58 78.3 L0 78.3 L0 108.42 L13.58 108.42 A2.3687 2.3687 -180 0 0 15.94 106.06 L15.94 80.66 A2.3687
								 2.3687 -180 0 0 13.58 78.3 Z" class="st7"/>
				</g>
				<g id="shape2563-19" transform="translate(14.1732,-12.4016)">
					<title>path18</title>
					<path d="M11.81 78.3 L0 78.3 L0 108.42 L11.81 108.42 A2.3687 2.3687 -180 0 0 14.17 106.06 L14.17 80.66 A2.3687
								 2.3687 -180 0 0 11.81 78.3 Z" class="st6"/>
				</g>
				<g id="shape2564-21" transform="translate(0,-14.1732)">
					<title>path20</title>
					<path d="M2.36 80.07 L25.98 80.07 A2.36161 2.36161 0 0 1 28.35 82.44 L28.35 106.06 A2.36161 2.36161 0 0 1 25.98
								 108.42 L2.36 108.42 A2.36161 2.36161 0 0 1 0 106.06 L0 82.44 A2.36161 2.36161 0 0 1 2.36 80.07 Z"
							class="st4"/>
				</g>
				<g id="shape2565-23" transform="translate(7.08661,-19.4882)">
					<title>path22</title>
					<path d="M0 90.7 L3.78 90.7 L10.25 102.63 C10.59 103.14 10.84 103.56 11.01 103.87 L11.06 103.87 A16.8183 16.8183
								 0 0 1 10.95 101.52 L10.95 90.7 L14.17 90.7 L14.17 108.42 L10.64 108.42 L3.88 96.67 A9.0939 9.0939
								 0 0 1 3.2 95.46 L3.14 95.46 A24.1441 24.1441 0 0 1 3.23 98.04 L3.23 108.42 L0 108.42 L0 90.7 Z"
							class="st8"/>
				</g>
				<g id="shape2566-25">
					<title>path24</title>
					<rect x="0" y="51.7271" width="56.6929" height="56.6929" class="st9"/>
				</g>
			</g>
		</g>
	</g>
</svg>
